X:1
T:O Mother What Shall I Do
S:Kate Dunlay
R:waltz
Z:Nigel Gatherer
L:1/4
M:3/4
K:D
|: D>ED | FAB | d>ef | d>BA | d B/d/A/d/ | B2b | a b/a/g/f/ | e2d |
|  D>ED | FAB | d/c/d/e/f/e/ | d>BA | B>dB/d/ | AFA | B/c/ d F/G/ | E2D :|
|: f/g/ a a/b/ | afa | bag/a/ | f>ed | f/a/ bb | b2a | d/c/d/e/f/g/ | e2d |
| f/e/d/e/f/g/ | afa | bag | a/g/f/e/ d | B<d/B/d/ | A>BA/B/ | G>AF/G/ | E2 D :|
